src/images/icons/icon-doctor.svg

<svg id="Layer_1" xmlns="http://www.w3.org/2000/svg" viewBox="-294 382.9 22 27.9"><style>.st0{fill:#222}</style><circle class="st0" cx="-285.6" cy="401.4" r="1.1"/><circle class="st0" cx="-280.2" cy="401.4" r="1.1"/><path class="st0" d="M-275.1 394.2c.5-.9.9-1.9.9-3.1 0-3.3-2.7-6-6-6-3.1 0-5.7 2.4-5.9 5.5-1 .4-1.9.9-2.6 1.5-2.2 1.8-3.5 4.5-3.5 7.3 0 5.2 4.2 9.4 9.4 9.4s9.4-4.2 9.4-9.4c-.1-1.8-.7-3.7-1.7-5.2zm-.5 1.8h-1.2c.3-.2.6-.5.9-.7.1.2.2.5.3.7zm-4.6-9.5c2.6 0 4.7 2.1 4.7 4.7s-2.1 4.7-4.7 4.7-4.7-2.1-4.7-4.7c0-2.7 2.1-4.7 4.7-4.7zm-7.8 6.6c.6-.5 1.2-.8 1.9-1.1.2 1.7 1.2 3.1 2.5 4h-6.6c.5-1.1 1.2-2.1 2.2-2.9zm5.1 14.4c-4.5 0-8.1-3.6-8.1-8.1v-.8h16.1v.8c.1 4.5-3.5 8.1-8 8.1z"/><circle class="st0" cx="-280.2" cy="391.1" r=".9"/></svg>

<?xml version="1.0" encoding="utf-8"?>
<!-- Generator: Adobe Illustrator 19.1.0, SVG Export Plug-In . SVG Version: 6.00 Build 0)  -->
<svg version="1.1" id="Layer_1" xmlns="http://www.w3.org/2000/svg" xmlns:xlink="http://www.w3.org/1999/xlink" x="0px" y="0px"
	 viewBox="-294 382.9 22 27.9" style="enable-background:new -294 382.9 22 27.9;" xml:space="preserve">
<style type="text/css">
	.st0{fill:#222222;}
</style>
<g id="grilla">
</g>
<g id="Notas">
</g>
<g id="Layer_4">
</g>
<g>
	<g>
		<g>
			<g>
				<circle class="st0" cx="-285.6" cy="401.4" r="1.1"/>
			</g>
		</g>
		<g>
			<g>
				<circle class="st0" cx="-280.2" cy="401.4" r="1.1"/>
			</g>
		</g>
	</g>
	<path class="st0" d="M-275.1,394.2c0.5-0.9,0.9-1.9,0.9-3.1c0-3.3-2.7-6-6-6c-3.1,0-5.7,2.4-5.9,5.5c-1,0.4-1.9,0.9-2.6,1.5
		c-2.2,1.8-3.5,4.5-3.5,7.3c0,5.2,4.2,9.4,9.4,9.4c5.2,0,9.4-4.2,9.4-9.4C-273.5,397.6-274.1,395.7-275.1,394.2z M-275.6,396h-1.2
		c0.3-0.2,0.6-0.5,0.9-0.7C-275.8,395.5-275.7,395.8-275.6,396z M-280.2,386.5c2.6,0,4.7,2.1,4.7,4.7c0,2.6-2.1,4.7-4.7,4.7
		s-4.7-2.1-4.7-4.7C-284.9,388.5-282.8,386.5-280.2,386.5z M-288,393.1c0.6-0.5,1.2-0.8,1.9-1.1c0.2,1.7,1.2,3.1,2.5,4h-6.6
		C-289.7,394.9-289,393.9-288,393.1z M-282.9,407.5c-4.5,0-8.1-3.6-8.1-8.1c0-0.3,0-0.6,0-0.8h16.1c0,0.3,0,0.6,0,0.8
		C-274.8,403.9-278.4,407.5-282.9,407.5z"/>
	<g>
		<circle class="st0" cx="-280.2" cy="391.1" r="0.9"/>
	</g>
</g>
</svg>
